svg/color/sol.svg

<svg width="64" height="65" viewBox="0 0 64 65" fill="none" xmlns="http://www.w3.org/2000/svg">
<rect y="0.303711" width="64" height="64" rx="32" fill="black"/>
<rect x="0.5" y="0.803711" width="63" height="63" rx="31.5" stroke="white" stroke-opacity="0.15"/>
<path d="M18.4957 40.4019C18.7403 40.1524 19.0719 40.0123 19.4176 40.0123H51.3168C51.8979 40.0123 52.1888 40.7295 51.7777 41.1486L45.4745 47.576C45.23 47.8255 44.8984 47.9655 44.5527 47.9655H12.6534C12.0723 47.9655 11.7814 47.2484 12.1925 46.8293L18.4957 40.4019Z" fill="url(#paint0_linear_11313_5413)"/>
<path d="M18.4955 16.3895C18.74 16.1401 19.0716 16 19.4174 16H51.3166C51.8977 16 52.1885 16.7171 51.7775 17.1363L45.4743 23.5637C45.2298 23.813 44.8982 23.9531 44.5525 23.9531H12.6532C12.0721 23.9531 11.7812 23.236 12.1922 22.8169L18.4955 16.3895Z" fill="url(#paint1_linear_11313_5413)"/>
<path d="M45.4745 28.3191C45.23 28.0697 44.8984 27.9297 44.5527 27.9297H12.6534C12.0723 27.9297 11.7814 28.6467 12.1925 29.0659L18.4957 35.4933C18.7403 35.7427 19.0719 35.8828 19.4176 35.8828H51.3168C51.8979 35.8828 52.1888 35.1657 51.7777 34.7465L45.4745 28.3191Z" fill="url(#paint2_linear_11313_5413)"/>
<defs>
<linearGradient id="paint0_linear_11313_5413" x1="48.268" y1="12.181" x2="25.5032" y2="54.9357" gradientUnits="userSpaceOnUse">
<stop stop-color="#00FFA3"/>
<stop offset="1" stop-color="#DC1FFF"/>
</linearGradient>
<linearGradient id="paint1_linear_11313_5413" x1="38.6153" y1="7.02183" x2="15.8505" y2="49.7766" gradientUnits="userSpaceOnUse">
<stop stop-color="#00FFA3"/>
<stop offset="1" stop-color="#DC1FFF"/>
</linearGradient>
<linearGradient id="paint2_linear_11313_5413" x1="43.411" y1="9.58543" x2="20.6462" y2="52.3402" gradientUnits="userSpaceOnUse">
<stop stop-color="#00FFA3"/>
<stop offset="1" stop-color="#DC1FFF"/>
</linearGradient>
</defs>
</svg>

<svg xmlns="http://www.w3.org/2000/svg" width="64" height="65" fill="none" viewBox="0 0 64 65"><rect width="64" height="64" y=".304" fill="#000" rx="32"/><rect width="63" height="63" x=".5" y=".804" stroke="#fff" stroke-opacity=".15" rx="31.5"/><path fill="url(#sol_svg-a)" d="M18.496 40.402c.244-.25.576-.39.922-.39h31.899c.58 0 .872.718.46 1.137l-6.303 6.427a1.3 1.3 0 0 1-.921.39h-31.9c-.58 0-.872-.718-.46-1.137z"/><path fill="url(#sol_svg-b)" d="M18.496 16.39c.244-.25.576-.39.921-.39h31.9c.58 0 .871.717.46 1.136l-6.303 6.428c-.244.249-.576.39-.921.39h-31.9c-.58 0-.872-.718-.46-1.137z"/><path fill="url(#sol_svg-c)" d="M45.475 28.32a1.3 1.3 0 0 0-.922-.39h-31.9c-.58 0-.872.717-.46 1.136l6.303 6.427c.244.25.576.39.922.39h31.899c.58 0 .872-.717.46-1.137z"/><defs><linearGradient id="sol_svg-a" x1="48.268" x2="25.503" y1="12.181" y2="54.936" gradientUnits="userSpaceOnUse"><stop stop-color="#00FFA3"/><stop offset="1" stop-color="#DC1FFF"/></linearGradient><linearGradient id="sol_svg-b" x1="38.615" x2="15.851" y1="7.022" y2="49.777" gradientUnits="userSpaceOnUse"><stop stop-color="#00FFA3"/><stop offset="1" stop-color="#DC1FFF"/></linearGradient><linearGradient id="sol_svg-c" x1="43.411" x2="20.646" y1="9.585" y2="52.34" gradientUnits="userSpaceOnUse"><stop stop-color="#00FFA3"/><stop offset="1" stop-color="#DC1FFF"/></linearGradient></defs></svg>
